!!!!SEGMENT: pl-wtm--r-1346_stefani-jozef--anna-polka.krn
!!!cenid: 18xx:1848
!!!COM: Stefani, Józef
!!!COM-rismID:
!!!CDT: 1800/04/16-1876/03/19
!!!CNT: Polish
!!!OTL: Anna Polka
!!!PDT:
!!!AGN: Secular; Polka
!!!SMS-siglum: PL-Wtm
!!!SMS-shelfmark: R 1346
!!!SMS-shelfwork: W
!!!SMS-variant:
!!!SMS-altvar:
!!!NIFC-rismSourceID: 1001119396
!!!NIFC-islandoraID: pl-wtm:25267
!!!URL-pdf-islandora: https://repozytorium.nifc.pl/islandora/object/pl-wtm%3A25267/datastream/PDF/view
!!!URL-scan: https://polish.musicsources.pl/pl/lokalizacje/galeria/rekopisy/6198 @EN{Scan on Polish Music Herritage in Open Access Website} @PL{Skany w portalu Dziedzictwo Muzyki Polskiej w otwartym dostępie}
!!!ONB-nifc: UWAGA: Adagio + Polka razem
!!!AIN: 1 empty
!!!key:
**kern	**kern	**dynam
*part1	*part1	*part1
*staff2	*staff1	*
*Iempty	*Ipiano	*
*	*I"Piano	*
*clefF4	*clefG2	*
*k[f#c#]	*k[f#c#]	*
*D:	*D:	*
*M3/4	*M3/4	*
*>[A,B,C,C,D,E,E,B,C,C,F]	*>[A,B,C,C,D,E,E,B,C,C,F]	*
=1	=1	=1
*^	*	*
*>A	*>A	*>A	*
*2\right	*2\right	*2\right	*
!	!	!LO:TX:t=P:problem=all\right&colon; global	!
!LO:TX:t=P:problem=all\right&colon; global	!	!	!
!	!	!LO:TX:a:Bi:t=Adagio	!
.	.	(<8qb/	.
!	!LO:N:vis=2	!	!
2.G/	8G\L	(>4.ee\)	.
.	8e 8B\	.	.
.	8e 8B\	.	.
.	8e 8B\	8dd\L	.
.	8e 8B\	8cc#\	.
.	8eJ 8B\	8b\J)	.
*v	*v	*	*
=2	=2	=2
8F#\L	8ff#\L	.
8f#J 8c# 8A#X\	16r	.
.	(>32ee#X\LL	.
.	32gg\JJJ	.
*rep	*	*
8F#\L	8ff#\L)	.
8f#J 8c# 8A#x\	16r	.
.	(>32ee#\LL	.
.	32gg\JJJ	.
*Xrep	*	*
*rep	*	*
8F#\L	8ff#\L)	.
8f#J 8c# 8A#x\	8ff#t>\J	.
.	(<16qqee#/LL	.
.	16qqff#/JJ)	.
*Xrep	*	*
!!LO:LB:g=original
=3	=3	=3
*^	*	*
!	!LO:N:vis=2	!	!
2.G/	8G\L	(>4.ee\	.
.	8e 8B\	.	.
.	8e 8B\	.	.
.	8e 8B\	8dd\L)	.
.	.	(<8qdd/	.
.	8e 8B\	8cc#\)	.
.	8eJ 8B\	8b\J	.
=4	=4	=4	=4
4F#/	8F#\L	(<16a#X/LL	.
.	.	16f#/	.
.	8c#J 8A#X\	16a#/	.
.	.	16cc#/JJ	.
*rep	*rep	*	*
4F#/	8F#\L	8ff#\)	.
.	8c#J 8A#X\	8r	.
*Xrep	*Xrep	*	*
*rep	*rep	*	*
!	!	!LO:N:vis=4.	!
4F#/	8F#\L	(<4ff#t>\	.
.	8c#J 8A#X\	.	.
.	.	16qqee#X/LL	.
.	.	16qqff#/JJ)	.
*Xrep	*Xrep	*	*
=5	=5	=5	=5
4E/	8E\L	(>4.aan\	.
.	8c#J 8An 8G\	.	.
*rep	*rep	*	*
4E/	8E\L	.	.
.	8c#J 8An 8G\	8gg\L	.
*Xrep	*Xrep	*	*
*rep	*rep	*	*
4E/	8E\L	8ee\	.
!	!	!LO:TX:a:t=P:problem=w źródle łuk kończy się za kreską taktową	!
.	8c#J 8An 8G\	8cc#\J)	.
*Xrep	*Xrep	*	*
!!LO:LB:g=original
=6	=6	=6	=6
4F#/	8F#\L	8bb\	.
.	8dJ 8A\	8r	.
*rep	*rep	*	*
4F#/	8F#\L	4aa\	.
.	8dJ 8A\	.	.
*Xrep	*Xrep	*	*
4F#/	8F#\L	4aa#Xt>\	.
.	8dJ 8A#X\	.	.
.	.	(<16qqgg#X/LL	.
.	.	16qqaa#/JJ)	.
=7	=7	=7	=7
4G/	8G\L	4.bb\	.
.	8dJ 8B\	.	.
*rep	*rep	*	*
4G/	8G\L	.	.
!	!	!LO:TX:a:t=P:problem=w źródle przekreślony obiegnik	!
.	8dJ 8B\	8bbsSSS\L	.
*Xrep	*Xrep	*	*
4G#X/	8G#\L	8ccc#\	.
.	8e#XJ 8d 8B\	8ddd\J	.
=8	=8	=8	=8
4A/	8A\L	[>4ddd\	.
.	8f#J 8d\	.	.
*rep	*rep	*	*
4A/	8A\L	16ddd\LL]	.
.	.	(>16ff# 16dd\	.
.	8f#J 8d\	16gg 16ee\	.
.	.	16gg#XJJ 16ee#X\	.
*Xrep	*Xrep	*	*
4A/	8A\L	16bbLL 16ggn\	.
.	.	16aa 16ff#\	.
.	8eJ 8c#\	16gg 16een\	.
.	.	16eeJJ 16a\)	.
*v	*v	*	*
=9	=9	=9
4r	4r	.
4r	4r	.
!	!LO:TX:b:Bi:t=attacca Polka.	!
8r;>	8r;>	.
!!LO:PB:g=original
=10||	=10||	=10||
*>B	*>B	*
*k[f#c#]	*k[f#c#]	*
*M2/4	*M2/4	*
!	!LO:TX:a:Bi:t=Anna Polka.	!
!	!LO:TX:a:t=[segno]:problem:problem=znak segno nad kreską taktową	!
8r	8a/	.
=11||	=11||	=11||
*^	*	*
!	!	!	!LO:DY:b:rj
4D/	8D\L	8a'>\L	p
.	8dJ 8A 8F#\	(>16ff#\L	.
.	.	16ee#X\JJ)	.
4D/	8D\L	8ff#\L	.
.	8dJ 8A 8F#\	8dd'>\J	.
=12	=12	=12	=12
4D/	8D\L	8b'>\L	.
.	8dJ 8B 8G\	(>16b\L	.
.	.	16dd\JJ	.
4D/	8D\L	8a'</L)	.
.	8dJ 8A 8F#\	8f#'</J	.
=13	=13	=13	=13
4C#/	8C#\L	(<16a/LL	.
.	.	16g/J)	.
.	8AJ 8G 8E\	8ee'</J	.
4D/	8D\L	(<16g/LL	.
.	.	16f#/J)	.
.	8AJ 8F#\	8dd'</J	.
!!LO:LB:g=original
=14	=14	=14	=14
.	.	(>8qff#/	.
4AA/	8AA\L	16ee\LL	.
.	.	16dd#X\	.
.	8AJ 8E 8C#\	16ee\	.
.	.	16ff#\JJ	.
4AA/	8AA\L	8ee\L)	.
.	8AJ 8E 8C#\	(>16b\L	.
.	.	16b-X\JJ)	.
=15	=15	=15	=15
4D/	8D\L	8a'>\L	.
.	8dJ 8A 8F#\	(>16ff#\L	.
.	.	16ee#X\JJ	.
*rep	*rep	*	*
4D/	8D\L	8ff#\L)	.
.	8dJ 8A 8F#\	8dd'>\J	.
*Xrep	*Xrep	*	*
=16	=16	=16	=16
4D/	8D\L	8b'>\L	.
.	8dJ 8B 8G\	(>16b\L	.
.	.	16dd\JJ	.
4D/	8D\L	8a/L)	.
.	8dJ 8A 8F#\	8f#'</J	.
=17	=17	=17	=17
4E/	8E\L	(<16d#X/LL	.
.	.	16e/)	.
.	8c#J 8A\	16a'</	.
.	.	16cc#'</JJ	.
*rep	*rep	*	*
4E/	8E\L	8ee'>\L	.
.	8c#J 8A\	8ff#'>\J	.
*Xrep	*Xrep	*	*
!!LO:LB:g=original
=18	=18	=18	=18
4E/	8E\L	(>16ff#\LL	.
.	.	16ee\	.
.	8dJ 8B 8G#X\	16dd\	.
.	.	16b\JJ)	.
8ryy	8c# 8A\	8a/	.
*v	*v	*	*
=19!|:	=19!|:	=19!|:
*>C	*>C	*
8r	8a/	f
=20	=20	=20
8B-X 8BB-X\	8g 8e 8d/	.
8r	8r	.
16B-LL 16BB-'>\	16ggLL 16ee 16dd'>\	.
16B- 16BB-'>\	16gg 16ee 16dd'>\	.
16B- 16BB-'>\	16gg 16ee 16dd'>\	.
16B-JJ 16BB-'>\	16ggJJ 16ee 16dd'>\	.
=21	=21	=21
8A 8AA\	16eeLL 16cc# 16a\	.
.	16a\	.
8r	16cc#\	.
.	16ee\JJ	.
8A 8E 8AA\	8aaL 8cc# 8a\	.
8r	8a\J	.
=22	=22	=22
!	!LO:SIC:v:n=1:s=8b-	!
8B-X 8BB-X\	8b 8g 8e/	.
8r	8r	.
*tremolo	*tremolo	*
16B- 16BB-\LL	16gg 16ee 16dd'>\LL	.
16B- 16BB-\	16gg 16ee 16dd'>\	.
16B- 16BB-\	16gg 16ee 16dd'>\	.
16B- 16BB-\JJ	16gg 16ee 16dd'>\JJ	.
*Xtremolo	*Xtremolo	*
!!LO:LB:g=original
=23	=23	=23
8AL 8AA\	8eeL 8cc# 8a'>\	.
8f#J 8d#X 8B#X 8A\	(>16dd#X\L	.
.	16ff#\JJ	.
8e 8c# 8A\	8ee\L)	.
8r	(>16bb\L	.
.	16bb-X\JJ)	.
=24	=24	=24
*^	*	*
4D/	8D\L	8aa'>\L	.
.	8dJ 8A 8F#\	(>16fff#\L	.
.	.	16eee#X\JJ	.
*rep	*rep	*	*
4D/	8D\L	8fff#\L)	.
.	8dJ 8A 8F#\	8ddd'>\J	.
*Xrep	*Xrep	*	*
=25	=25	=25	=25
4D/	8D\L	8bb'>\L	.
.	8dJ 8B 8G\	(>16bb\L	.
.	.	16ddd\JJ	.
4D/	8D\L	8aa'>\L)	.
.	8dJ 8A 8F#\	8ff#'>\J	.
=26	=26	=26	=26
4G/	8G\L	(<16a#X/LL	.
.	.	16b/JJ)	.
.	8eJ 8B\	(>16dd#X\LL	.
.	.	16ee\JJ)	.
4E/	8E\L	8gg'>\L	.
.	8eJ 8B 8G\	8bb'>\J	.
!!LO:LB:g=original
=27	=27	=27	=27
4A/	8A\L	(>16bb\LL	.
.	.	16aa\	.
.	8eJ 8c#\	16gg\	.
.	.	16ee\JJ)	.
!	!	!LO:TX:a:t=P:problem=w źródle tylko jedna fermata [fine] nad kreską repetycji	!
!	!	!LO:TX:b:Bi:t=fine	!
8ryy	8f# 8d\	8dd\	.
*kcancel	*kcancel	*kcancel	*
*v	*v	*	*
=28:|!;	=28:|!;	=28:|!
*>D	*>D	*
*k[f#]	*k[f#]	*
!	!LO:TX:a:Bi:t=Trio	!
8r	8d/	.
=29	=29	=29
*^	*	*
!	!	!	!LO:DY:b:rj
4G/	8G\L	8bL 8g'</	p
.	8dJ 8B\	8bJ 8g'</	.
.	.	(<8qa#X 8qf#/	.
*rep	*rep	*	*
4G/	8G\L	8bL 8g/)	.
.	8dJ 8B\	8bJ 8g'</	.
*Xrep	*Xrep	*	*
=30	=30	=30	=30
*	*	*^	*
*	*	*	*tremolo	*
4F#/	8F#\L	(>16dd/LL	8a\L	.
.	.	16cc#X/J)	.	.
.	8dJ 8A\	8dd'>/J	8a\	.
*rep	*rep	*	*	*
4F#/	8F#\L	(>16dd/LL	8a\	.
.	.	16cc#/J)	.	.
.	8dJ 8A\	8dd'>/J	8a\J	.
*Xrep	*Xrep	*	*	*
*	*	*	*Xtremolo	*
!!LO:LB:g=original
*	*	*v	*v	*
=31	=31	=31	=31
4E/	8E\L	8ggL 8b 8g\	.
.	8eJ 8B 8G\	8ggJ 8b 8g\	.
4E/	8E\L	8bL 8g/	.
.	8AJ 8G\	8cc#XJ 8g/	.
=32	=32	=32	=32
*	*	*^	*
*	*	*	*tremolo	*
4D/	8D\L	16dd'>/LL	8a\L	.
.	.	16cc#X'>/J	.	.
.	8AJ 8F#\	8dd'>/J	8a\	.
4D/	8D\L	16dd'>/LL	8a\	.
.	.	16cc#'>/J	.	.
.	8AJ 8F#\	8dd'>/J	8a\J	.
*	*	*	*Xtremolo	*
*v	*v	*	*	*
*	*v	*v	*
=33	=33	=33
!	!	!LO:DY:b:rj
8cL 8C\	8eeL 8ccn 8g'>\	f
8cJ 8C\	8eeJ 8cc 8g'>\	.
4r	16ggLL 16g'>\	.
.	16cccJ 16cc'>\	.
.	8eeeJ 8ee'>\	.
=34	=34	=34
8BL 8BB\	8ddL 8g'>\	.
8BJ 8BB\	8ddJ 8g'>\	.
4r	16ggLL 16g'>\	.
.	16bbJ 16b'>\	.
.	8dddJ 8dd'>\	.
!!LO:PB:g=original
=35	=35	=35
8AL 8AA\	8ccL 8a 8e'>^</	.
8AJ 8AA\	8ccJ 8a 8e'>/	.
!	!	!LO:DY:b:rj
8AL 8AA\	8eL 8c/	p
8AJ 8D\	8f#J 8c/	.
=36	=36	=36
*	*^	*
*tremolo	*	*tremolo	*
8G 8GG\L	16g'>/LL	8B\L	.
.	16f#'>/J	.	.
8G 8GG\	8g'>/J	8B\	.
.	(<8qa/	.	.
8G 8GG\	16g/LL)	8B\	.
.	16f#'>/J	.	.
8G 8GG\J	8g'>/J	8B\J	.
*Xtremolo	*	*Xtremolo	*
*	*v	*v	*
=37!|:	=37!|:	=37!|:
*^	*	*
*>E	*>E	*>E	*
!	!	!	!LO:DY:b:rj
!	!LO:N:vis=2	!	!
2E/	8E\L	8b\L	f
.	8B 8G\	16ee\L	.
.	.	16ff#\JJ	.
.	8B 8G\	8gg\L	.
.	8BJ 8G\	8ee\J	.
=38	=38	=38	=38
.	.	(<8qaa#X/	.
!	!LO:N:vis=2	!	!
2D#X/	8D#\L	8bb\L)	.
.	8B 8A 8F#\	8ff#'>\	.
.	8B 8A 8F#\	8bb'>\	.
.	8BJ 8A 8F#\	8aa#'>\J	.
!!LO:LB:g=original
*v	*v	*	*
=39	=39	=39
8E\L	16gg'>\LL	.
.	16ff#'>\J	.
8BJ 8G\	8ee'>\J	.
*rep	*	*
8E\L	16gg'>\LL	.
.	16ff#'>\J	.
8BJ 8G\	8ee'>\J	.
*Xrep	*	*
=40	=40	=40
.	(<8qgg/	.
8BB\L	(>16ff#\LL)	.
.	16ee#X\	.
8BJ 8F# 8D#X\	16ff#\	.
.	16gg\JJ	.
*rep	*	*
8BB\L	8ff#\L)	.
8BJ 8F# 8D#X\	8b'>\J	.
*Xrep	*	*
=41	=41	=41
*^	*	*
!	!LO:N:vis=2	!	!
2E/	8E\L	8b'>\L	.
.	8B 8G\	(>16ee\L	.
.	.	16ff#\JJ)	.
.	.	(<8qaa/	.
.	8B 8G\	8gg\L)	.
.	8BJ 8G\	8ee'>\J	.
=42	=42	=42	=42
.	.	(<32qqee/LLL	.
.	.	32qqff#/	.
.	.	32qqgg#X/JJJ	.
4C#X/	8C#X\L	8aa\L)	.
.	8AJ 8G 8E\	8ee'>\	.
*rep	*rep	*	*
4C#X/	8C#X\L	8aa'>\	.
.	8AJ 8G 8E\	8ggn'>\J	.
*Xrep	*Xrep	*	*
!!LO:LB:g=original
=43	=43	=43	=43
4D/	8D\L	16ff#'>\LL	.
.	.	16ee'>\J	.
.	8AJ 8F#\	8dd'>\J	.
4ryy	8AA\L	16ee'>\LL	.
.	.	16dd'>\J	.
.	8AJ 8G 8E\	8cc#X'>\J	.
=44	=44	=44	=44
4D/	8D\L	(>16dd\LL	.
.	.	16ee\	.
.	8AJ 8F#\	16ff#\	.
.	.	16ee\JJ	.
*rep	*rep	*	*
4D/	8D\L	8dd\L)	.
.	8AJ 8F#\	8ccn\J	.
*Xrep	*Xrep	*	*
=45	=45	=45	=45
!	!	!	!LO:DY:b:rj
4G/	8G\L	8bL 8g/	p
.	8dJ 8B\	8bJ 8g/	.
.	.	(<8qa#X 8qf#/	.
*rep	*rep	*	*
4G/	8G\L	8bL 8g/)	.
.	8dJ 8B\	8bJ 8g/	.
*Xrep	*Xrep	*	*
=46	=46	=46	=46
*	*	*^	*
*	*	*	*tremolo	*
4F#/	8F#\L	16dd'>/LL	8a\L	.
.	.	16cc#X'>/J	.	.
.	8dJ 8A\	8dd'>/J	8a\	.
*rep	*rep	*	*	*
4F#/	8F#\L	16dd'>/LL	8a\	.
.	.	16cc#'>/J	.	.
.	8dJ 8A\	8dd'>/J	8a\J	.
*Xrep	*Xrep	*	*	*
*	*	*	*Xtremolo	*
!!LO:LB:g=original
*v	*v	*	*	*
*	*v	*v	*
=47	=47	=47
!	!	!LO:DY:b:rj
8cL 8C\	8eeL 8cc 8g^<\	f
8cJ 8C\	8eeJ 8cc 8g^<\	.
4r	16ggLL 16g'>\	.
.	16cccJ 16cc'>\	.
.	8eeeJ 8ee'>\	.
=48	=48	=48
8BL 8BB\	8ddL 8g^<\	.
8BJ 8BB\	8ddJ 8g^<\	.
4r	16ggLL 16g'>\	.
.	16bbJ 16b'>\	.
.	8dddJ 8dd'>\	.
=49	=49	=49
8AL 8AA\	8ccL 8a 8e/	.
8AJ 8AA\	8ccJ 8a 8e/	.
!	!	!LO:DY:b:rj
8AL 8AA\	8eL 8c/	p
8AJ 8D\	8f#J 8c/	.
=50	=50	=50
*	*^	*
*tremolo	*	*tremolo	*
8G 8GG\L	16g'>/LL	8B\L	.
.	16f#'>/J	.	.
8G 8GG\	8g'>/J	8B\	.
.	(<8qa/	.	.
8G 8GG\	16g/LL)	8B\	.
.	16f#'>/J	.	.
!	!LO:TX:b:Bi:t=d'al segno \nal fine (fermata) \ne poi la Coda	!	!
!	!LO:TX:a:t=[segno]:problem:problem=znak segno nad kreską taktową	!	!
8G 8GG\J	8g'>/J	8B\J	.
*Xtremolo	*	*Xtremolo	*
!!LO:LB:g=original
*	*v	*v	*
=51:|!	=51:|!	=51:|!
*^	*	*
*>F	*>F	*>F	*
*k[f#c#]	*k[f#c#]	*k[f#c#]	*
!	!	!LO:TX:a:Bi:t=Coda:rj	!
!	!	!	!LO:DY:b:rj
4D#X/	8D#\L	(>16ccc#\LL	f
.	.	16bb\	.
.	8cnJ 8A 8F#\	16aa\	.
.	.	16ff#\JJ)	.
4E/	8E\L	8gg\L	.
.	8BJ 8G\	8bb'>\J	.
=52	=52	=52	=52
4C#/	8C#\L	(>16bb\LL	.
.	.	16aa\	.
.	8AJ 8G 8E\	16gg\	.
.	.	16ee\JJ	.
4D/	8D\L	8ff#\L)	.
.	8AJ 8F#\	8aa'>\J	.
*v	*v	*	*
=53	=53	=53
!LO:TX:t=P:problem=mixed beam	!	!
8GG/L	(>16ee\LL	.
.	16dd#X\	.
8BJ 8G 8E\	16ee\	.
.	16ff#\JJ	.
*rep	*	*
!LO:TX:t=P:problem=mixed beam	!	!
8GG/L	8gg\L)	.
8BJ 8G 8E\	8bb'>\J	.
*Xrep	*	*
=54	=54	=54
8DL 8AA\	(>16gg#X\LL	.
.	16aa\	.
8AJ 8G 8E\	16ggn\	.
.	16ee\JJ)	.
8A 8G 8E\	8cc#\	.
8r;>	8r;>	.
=55||	=55||	=55||
*^	*	*
!	!	!LO:TX:b:Bi:t=piu mosso.	!
4D/	8D\L	8ff#L 8dd'>\	.
.	8AJ 8F#\	8ff#J 8dd'>\	.
.	.	(<8qee#X 8qcc#/	.
*rep	*rep	*	*
4D/	8D\L	8ff#L 8dd\)	.
.	8AJ 8F#\	8ff#J 8dd\	.
*Xrep	*Xrep	*	*
=56	=56	=56	=56
4C#/	8C#\L	16bb'>\LL	.
.	.	16aa'>\J	.
.	8AJ 8G 8E\	8ee'>\J	.
*rep	*rep	*rep	*
4C#/	8C#\L	16bb'>\LL	.
.	.	16aa'>\J	.
.	8AJ 8G 8E\	8ee'>\J	.
*Xrep	*Xrep	*Xrep	*
!!LO:LB:g=original
=57	=57	=57	=57
4D/	8D\L	8ff#L 8dd'>\	.
.	8AJ 8F#\	8ff#J 8dd'>\	.
.	.	(<8qee#X 8qcc#/	.
*rep	*rep	*	*
4D/	8D\L	8ff#L 8dd\)	.
.	8AJ 8F#\	8ff#J 8dd'>\	.
*Xrep	*Xrep	*	*
=58	=58	=58	=58
4AA/	8AA\L	16ee\LL	.
.	.	16cc#\J	.
.	8AJ 8E 8C#\	8a\J	.
*rep	*rep	*rep	*
4AA/	8AA\L	16ee\LL	.
.	.	16cc#\J	.
.	8AJ 8E 8C#\	8a\J	.
*Xrep	*Xrep	*Xrep	*
=59	=59	=59	=59
4D/	8D\L	8ff#L 8dd'>\	.
.	8AJ 8F#\	8ff#J 8dd'>\	.
.	.	(<8qee#X 8qcc#/	.
*rep	*rep	*	*
4D/	8D\L	8ff#L 8dd\)	.
.	8AJ 8F#\	8ff#J 8dd'>\	.
*Xrep	*Xrep	*	*
=60	=60	=60	=60
4C#/	8C#\L	16bb'>\LL	.
.	.	16aa'>\J	.
.	8AJ 8G 8E\	8ee'>\J	.
*rep	*rep	*rep	*
4C#/	8C#\L	16bb'>\LL	.
.	.	16aa'>\J	.
.	8AJ 8G 8E\	8ee'>\J	.
*Xrep	*Xrep	*Xrep	*
*v	*v	*	*
=61	=61	=61
8D\L	16ff#LL 16dd'>\	.
.	16gg 16ee'>\	.
8d\	16aa 16ff#'>\	.
.	16bbJJ 16gg'>\	.
8A\	16ccc#LL 16aa'>\	.
.	16ddd 16bb'>\	.
8F#\J	16eee 16ccc#'>\	.
.	16fff#JJ 16ddd'>\	.
=62	=62	=62
8E\L	8gggL 8eee\	.
8A\	8ccc# 8aa 8gg\	.
8D\J	8dddJ 8aa 8ff#\	.
==	==	==
*-	*-	*-
!!!system-decoration: {(s1,s2)}
!!!RDF**kern: > = above
!!!RDF**kern: < = below
!!!RDF**dynam: < = "cresc", fontstyle= "bold-italic"
!!!RDF**dynam: > = "dim", fontstyle= "bold-italic"
!!!RDF**kern: N = linked
!!!RDF**kern: i = editorial accidental
!!!EED: Wojciech Jakubiak-Danek
!!!EEV: 2021-05-03
!!!ENC: Andrzej Gręziak
!!!END: 2021-04-10
